X:1
T:Calling Thee
T:Charles Hutchinson Gabriel
T:Calling Thee
T:Public Domain
T:Public Domain
C:Charles Hutchinson Gabriel
Z:Public Domain
%%score ( 1 2 ) ( 3 4 )
L:1/8
M:4/4
K:Eb
V:1 treble 
V:2 treble 
V:3 bass 
V:4 bass 
V:1
 E[EF] | [EG][EG][DG][DF] E2 [EG][FA] | [GB][GB][GB][FA] [EG]2 [DA][EB] | %3
w: 1.~Say, what|thy tears that start, Wear- y child|brok- en heart? Lift thine eye! O|
w: 2.~He has|and sought thee long; Leave the gay|care- less throng; Why de- lay His|
w: 3.~Dost thou|His name be- lieve? Pard’n- ing grace|thou re- ceive? Plead with Him on|
w: 4.~At the|where once He died, At the fount|o- pened wide, Seek and find sal-|
 [Ec][Ec][Ec][Ec] [Ae]2 [Ed][Ec] | [EB][Ec][EB][EG] [DF]2 |:"^Refrain" [DG][DF] | (ECB,C) (EG)BG | %7
w: look and see— ’Tis the Sav- ior|call- ing thee. * *|||
w: own to be, When he still is|call- ing thee? He is|call- ing,|He * * * is * call- ing,|
w: bend- ed knee— Love di- vine is|call- ing thee. * *|||
w: va- tion free, While He now is|call- ing thee! * *|||
 FGFA [Ac]2 [Ad][Ac] | [GB][Gc][GB][Gc] [GB]2 [EG][EA] | [EG][DF][DF][^C=E] [DF]2 :| [Ad][Ac] | %11
w: ||||
w: Lift thine eyes! O look and see,|the Sav- ior call- ing thee! ’Tis|the Sav- ior call- ing,|call- ing,|
w: ||||
w: ||||
 [GB][Gc][GB][Gc] [GB][EG][DG][DF] | (ECB,C [B,E]2) |] %13
w: ||
w: call- ing thee! * * * * *||
w: ||
w: ||
V:2
 E x | x4 E2 x2 | x8 | x8 | x6 |: x2 | E4 B2 E2 | E4 x4 | x8 | x6 :| x2 | x8 | E4- x2 |] %13
w: mean|with||||||||||||
w: called|and|||||call- ing thee,|’Tis||||||
w: on|wouldst||||||||||||
w: cross|He||||||||||||
V:3
 [E,G,][E,A,] | [E,B,][E,B,][B,,B,][B,,A,] [E,G,]2 [E,B,][E,B,] | %2
w: ~ ~|~ ~ ~ ~ ~ ~ ~|
 [E,E][E,E][B,,E][B,,B,] [E,B,]2 [F,B,][G,B,] | A,A,A,A, [A,C]2 [A,B,]A, | %4
w: ~ ~ ~ ~ ~ ~ ~|~ ~ ~ ~ ~ ~ ~|
 [E,G,][E,A,][E,G,][E,B,] [A,,B,]2 |: [B,,B,][B,,A,] | %6
w: He is call- ing, call-|ing, call-|
 [E,G,][E,A,][E,G,][E,A,] [E,G,][E,B,] [G,_D]2 | [A,C]4 [A,E]2 [A,E][A,E] | %8
w: ing thee, call- ing, ~ ~ ~|~ ~ ~ ~|
 [E,E][E,E][E,E][E,E] [E,E]2 [E,B,][E,B,] | [B,,B,][B,,B,][B,,B,][B,,B,] [B,,B,]2 :| [A,E][A,E] | %11
w: ~ ~ ~ ~ ~ ~ ~|~ ~ ~ ~ ~|~ ~|
 [E,E][E,E][E,E][E,E] [B,,E][B,,B,][B,,B,][B,,A,] | G,A,G,A, [E,G,]2 |] %13
w: ~ ~ ~ call- ing, call- ing~thee *||
V:4
 x2 | x8 | x8 | A,A,A,A, x2 A, x | x6 |: x2 | x8 | x8 | x8 | x6 :| x2 | x8 | E,4- x2 |] %13
w: |||~ ~ ~ ~ ~||||||||||

